X:1
T:Choral
T:Choral
T:Wer nur den lieben Gott lässt walten
T:J. S. Bach BWV 691 
C:J. S. Bach BWV 691
%%score { ( 1 4 5 ) | ( 2 3 ) }
L:1/8
Q:1/4=48
M:4/4
K:C
V:1 treble nm="Cembalo" snm="Cbl."
V:4 treble 
V:5 treble 
V:2 bass 
V:3 bass 
V:1
 E2 | MA/B/A/B/ PB3/2A/4B/4 c2 (B/c/4d/4c/B/) | %2
 A/A/MB/c/ PB>A P^G>^F{!breath!!fermata!x} !breath!!fermata!E =G | G/=F/E/F/ PF>E ME2 z/ A/MB/c/ | %4
 c/B/Mc/d/{x} ^G>A MA2 :| MB-B/4c/8B/8A/4B/4 | c/d/c/d/ Pd3/2c/4d/4 e2 e/f/4g/4Pf/e/ | %7
 a/B/c/d/ G/f/e/Pd/4c/4 !fermata!Mc2 (e/g/f/e/ | d/c/B/c/) Pc>B c/B/PA/^G/ MAc/B/ | %9
[Q:1/4=48] Mc[Q:1/4=47]"^.4"d/[Q:1/4=46]"^.8"e/[Q:1/4=45]"^.8" Pc[Q:1/4=43]B/[Q:1/4=41]"^.2"A/[Q:1/4=39]"^.1" A2-[Q:1/4=36][Q:1/4=34][Q:1/4=28] !fermata![CEA][Q:1/4=31]"^.2" |] %10
V:2
 C,D, | E, MA,2 ^G, A,C DE- | ED- DC B,A, ^G, B, | C3 B,- B,A,/^G,/ A,2 | DC PB,2 A,2 :| z E,- | %6
 E, F,2 G,- G,G, C2- |"^(                 )" C2- CB, !fermata!z/ G,/A,/B,/ C2 | B,2 A,2- A,D CB, | %9
 A,3 ^G, z z/ E,/ A, |] %10
V:3
 A,,B,, | C,F, D,E, A,3 =G, | F,>E, D,2 !fermata!E,3 E, | A,2 D,G, C,2 F,E, | %4
 D,2 E,2 !fermata!z A,, :| ^G,,2 | A,,2 B,,2 C,3 A, | F,^F, G,2 !fermata!C,2 z A,- | %8
 A,^G, A,C, D,E, ^F,^G, | A,D, E,2 A,,2- !fermata!A,, |] %10
V:4
 x2 | x8 | x8 | x8 | x6 :| x2 | x8 | x8 | x8 | x9/2"^.8" E3/2- x |] %10
V:5
 x2 | x8 | x8 | x8 | x6 :| x2 | x8 | x8 | x8 | x4 A/E/"^.1"C- x |] %10

